zondicons/svg/inbox-full.svg

<svg width="20px" height="20px" viewBox="0 0 20 20" version="1.1" xmlns="http://www.w3.org/2000/svg" xmlns:xlink="http://www.w3.org/1999/xlink"><title>inbox-full</title><desc>Created with Sketch.</desc><defs></defs><g id="Page-1" stroke="none" stroke-width="1" fill="none" fill-rule="evenodd"><g id="inbox-full" fill="#000000"><path d="M14,14 L18,14 L18,2 L2,2 L2,14 L6,14 L6,14.0020869 C6,15.1017394 6.89458045,16 7.99810135,16 L12.0018986,16 C13.1132936,16 14,15.1055038 14,14.0020869 L14,14 L14,14 Z M0,1.99079514 C0,0.891309342 0.898212381,0 1.99079514,0 L18.0092049,0 C19.1086907,0 20,0.898212381 20,1.99079514 L20,18.0092049 C20,19.1086907 19.1017876,20 18.0092049,20 L1.99079514,20 C0.891309342,20 0,19.1017876 0,18.0092049 L0,1.99079514 L0,1.99079514 Z M4,4 L16,4 L16,6 L4,6 L4,4 L4,4 Z M4,7 L16,7 L16,9 L4,9 L4,7 L4,7 Z M4,10 L16,10 L16,12 L4,12 L4,10 L4,10 Z" id="Combined-Shape"></path></g></g></svg>

<svg xmlns="http://www.w3.org/2000/svg" viewBox="0 0 20 20"><path d="M14 14h4V2H2v12h4c0 1.1.9 2 2 2h4a2 2 0 0 0 2-2zM0 2C0 .9.9 0 2 0h16a2 2 0 0 1 2 2v16a2 2 0 0 1-2 2H2a2 2 0 0 1-2-2V2zm4 2h12v2H4V4zm0 3h12v2H4V7zm0 3h12v2H4v-2z"/></svg>
